places/64/folder-games.svg

<svg height="64" width="64" xmlns="http://www.w3.org/2000/svg" xmlns:xlink="http://www.w3.org/1999/xlink">
    <linearGradient id="a" gradientTransform="matrix(1 0 0 .99967 0 .176)" gradientUnits="userSpaceOnUse" x2="0" y1="541.798" y2="499.784">
        <stop offset="0" stop-color="#3daee9"/>
        <stop offset="1" stop-color="#6cc1ef"/>
    </linearGradient>
    <path d="m4 6v27c0 .554.446 1 1 1h54c.554 0 1-.446 1-1v-21.99l-.002-.01h.002v-1h-28l-4-4z" fill="#147eb8"/>
    <path d="m410.571 499.798-4 4h-19v1h.002l-.002.012v36.988h58v-42z" fill="url(#a)" transform="translate(-384.571 -483.798)"/>
    <g fill-opacity=".235">
        <path d="m3 20v1h20l3-5-4 4z" fill="#fff" fill-rule="evenodd"/>
        <path d="m4 19v1h18l4-4-6 3z" fill-rule="evenodd"/>
        <path d="m3 57v1h58v-1h-57z"/>
        <path d="m28 6 3 5h29v-1h-28z" fill="#fff" fill-rule="evenodd"/>
    </g>
    <g fill="#1272a5">
        <path d="m25 30c-2.21 0-4 2.685-4 5.999v6.998c0 1.78 2.154 2.673 3.414 1.413l2.414-2.413h.676a2.5 2.5 0 0 0 1.996 1 2.5 2.5 0 0 0 1.992-1h.906a2.5 2.5 0 0 0 1.997 1 2.5 2.5 0 0 0 1.992-1h.785l2.414 2.413c1.26 1.26 3.414.367 3.414-1.413v-6.998c0-3.314-1.79-5.999-4-5.999zm0 1h14c1.657 0 3 2.238 3 4.999v6.998c0 .89-1.077 1.336-1.707.707l-2.707-2.707h-1.779a1.5 1.5 0 0 1 -1.412 1 1.5 1.5 0 0 1 -1.395-.955v-.045h-2.088a1.5 1.5 0 0 1 -1.412 1 1.5 1.5 0 0 1 -1.412-1h-1.674l-2.707 2.707c-.63.63-1.707.184-1.707-.707v-6.998c0-2.76 1.343-5 3-5z"/>
        <path d="m25 31.996v2h-2v2h2v2h2v-2h2v-2h-2v-2zm11 7.5a1.5 1.5 0 0 1 -1.5 1.5 1.5 1.5 0 0 1 -1.5-1.5 1.5 1.5 0 0 1 1.5-1.5 1.5 1.5 0 0 1 1.5 1.5zm-5 0a1.5 1.5 0 0 1 -1.5 1.5 1.5 1.5 0 0 1 -1.5-1.5 1.5 1.5 0 0 1 1.5-1.5 1.5 1.5 0 0 1 1.5 1.5zm8-2.5a1 1 0 0 1 -1 1 1 1 0 0 1 -1-1 1 1 0 0 1 1-1 1 1 0 0 1 1 1zm2-2a1 1 0 0 1 -1 1 1 1 0 0 1 -1-1 1 1 0 0 1 1-1 1 1 0 0 1 1 1zm-2-2a1 1 0 0 1 -1 1 1 1 0 0 1 -1-1 1 1 0 0 1 1-1 1 1 0 0 1 1 1zm-2 2a1 1 0 0 1 -1 1 1 1 0 0 1 -1-1 1 1 0 0 1 1-1 1 1 0 0 1 1 1z"/>
    </g>
</svg>

<svg xmlns="http://www.w3.org/2000/svg" viewBox="0 0 64 64">
  <defs id="defs3051">
    <style type="text/css" id="current-color-scheme">
      .ColorScheme-Text {
        color:#232629;
      }
      .ColorScheme-Highlight {
        color:#3daee9;
      }
      </style>
  </defs>
 <path 
     style="fill:currentColor" 
     d="M 4 6 L 4 11 L 4 20 L 3 20 L 3 21 L 3 21 C 3 21 3 21 3 21 L 3 57 L 3 58 L 4 58 L 60 58 L 61 58 L 61 57 L 61 21 L 61 21 L 61 16 L 60 16 L 60 11 C 60 11 60 11 60 11 L 60 11 L 60 10 L 32 10 L 28 6 L 4 6 z "
     class="ColorScheme-Highlight"
     />
 <path 
     style="fill-opacity:0.33"
     d="M 4 6 L 4 11 L 4 20 L 22 20 L 26 16 L 60 16 L 60 11 C 60 11 60 11 60 11 L 60 11 L 60 10 L 32 10 L 28 6 L 4 6 z "
     />
 <path 
     style="fill:#ffffff;fill-opacity:0.2"
     d="M 28 6 L 31 11 L 33 11 L 60 11 L 60 10 L 33 10 L 32 10 L 28 6 z M 26 16 L 22 20 L 3 20 L 3 21 L 23 21 L 26 16 z "
     />
 <path 
     style="fill-opacity:0.2;fill-rule:evenodd"
     d="M 26 16 L 20 19 L 4 19 L 4 20 L 22 20 L 26 16 z M 3 57 L 3 58 L 4 58 L 60 58 L 61 58 L 61 57 L 60 57 L 4 57 L 3 57 z "
     class="ColorScheme-Text"
     />
 <path 
     style="fill:currentColor;fill-opacity:0.6;stroke:none"  
     d="M 25 30 C 22.79 30 21 32.7 21 36 L 21 43 C 21 44.8 23.1 45.7 24.4 44.4 L 26.8 42 L 27.5 42 A 2.5 2.5 0 0 0 29.5 43 A 2.5 2.5 0 0 0 31.5 42 L 32.4 42 A 2.5 2.5 0 0 0 34.4 43 A 2.5 2.5 0 0 0 36.4 42 L 37.2 42 L 39.6 44.4 C 40.8 45.7 43 44.8 43 43 L 43 36 C 43 32.7 41.21 30 39 30 L 25 30 z M 25 31 L 25 31 L 39 31 C 40.6 31 42 33.2 42 36 L 42 43 C 42 43.9 40.9 44.3 40.3 43.7 L 37.6 41 L 35.8 41 A 1.5 1.5 0 0 1 34.4 42 A 1.5 1.5 0 0 1 33 41 L 33 41 L 30.9 41 A 1.5 1.5 0 0 1 29.5 42 A 1.5 1.5 0 0 1 28.1 41 L 26.4 41 L 23.7 43.7 C 23.1 44.3 22 43.9 22 43 L 22 36 C 22 33.2 23.3 31 25 31 z M 25 32 L 25 34 L 23 34 L 23 36 L 25 36 L 25 38 L 27 38 L 27 36 L 29 36 L 29 34 L 27 34 L 27 32 L 25 32 z M 38 32 A 1 1 0 0 0 37 33 A 1 1 0 0 0 38 34 A 1 1 0 0 0 39 33 A 1 1 0 0 0 38 32 z M 36 34 A 1 1 0 0 0 35 35 A 1 1 0 0 0 36 36 A 1 1 0 0 0 37 35 A 1 1 0 0 0 36 34 z M 40 34 A 1 1 0 0 0 39 35 A 1 1 0 0 0 40 36 A 1 1 0 0 0 41 35 A 1 1 0 0 0 40 34 z M 38 36 A 1 1 0 0 0 37 37 A 1 1 0 0 0 38 38 A 1 1 0 0 0 39 37 A 1 1 0 0 0 38 36 z M 29.5 38 A 1.5 1.5 0 0 0 28 39.5 A 1.5 1.5 0 0 0 29.5 41 A 1.5 1.5 0 0 0 31 39.5 A 1.5 1.5 0 0 0 29.5 38 z M 34.5 38 A 1.5 1.5 0 0 0 33 39.5 A 1.5 1.5 0 0 0 34.5 41 A 1.5 1.5 0 0 0 36 39.5 A 1.5 1.5 0 0 0 34.5 38 z "
     class="ColorScheme-Text"
     />
</svg>
